assets/icons/peoples.svg

<svg version="1.2" xmlns="http://www.w3.org/2000/svg" viewBox="0 0 640 512" width="640" height="512"><style>.a{fill:#005ef5}</style><path class="a" d="m96 128c0-33.9 13.5-66.5 37.5-90.5 24-24 56.6-37.5 90.5-37.5 33.9 0 66.5 13.5 90.5 37.5 24 24 37.5 56.6 37.5 90.5 0 33.9-13.5 66.5-37.5 90.5-24 24-56.6 37.5-90.5 37.5-33.9 0-66.5-13.5-90.5-37.5-24-24-37.5-56.6-37.5-90.5zm-96 354.3c0-98.5 79.8-178.3 178.3-178.3h91.4c98.5 0 178.3 79.8 178.3 178.3 0 16.4-13.3 29.7-29.7 29.7h-388.6c-16.4 0-29.7-13.3-29.7-29.7zm609.3 29.7h-137.9c5.4-9.4 8.6-20.3 8.6-32v-8c0-60.7-27.1-115.2-69.8-151.8 2.4-0.1 4.7-0.2 7.1-0.2h61.4c89.1 0 161.3 72.2 161.3 161.3 0 17-13.8 30.7-30.7 30.7zm-177.3-256c-31 0-59-12.6-79.3-32.9 19.7-26.6 31.3-59.5 31.3-95.1 0-26.8-6.6-52.1-18.3-74.3 18.6-13.6 41.5-21.7 66.3-21.7 61.9 0 112 50.1 112 112 0 61.9-50.1 112-112 112z"/></svg>

<svg xmlns="http://www.w3.org/2000/svg" viewBox="0 0 640 512"><!--!Font Awesome Free 6.5.1 by @fontawesome - https://fontawesome.com License - https://fontawesome.com/license/free Copyright 2024 Fonticons, Inc.--><path d="M96 128a128 128 0 1 1 256 0A128 128 0 1 1 96 128zM0 482.3C0 383.8 79.8 304 178.3 304h91.4C368.2 304 448 383.8 448 482.3c0 16.4-13.3 29.7-29.7 29.7H29.7C13.3 512 0 498.7 0 482.3zM609.3 512H471.4c5.4-9.4 8.6-20.3 8.6-32v-8c0-60.7-27.1-115.2-69.8-151.8c2.4-.1 4.7-.2 7.1-.2h61.4C567.8 320 640 392.2 640 481.3c0 17-13.8 30.7-30.7 30.7zM432 256c-31 0-59-12.6-79.3-32.9C372.4 196.5 384 163.6 384 128c0-26.8-6.6-52.1-18.3-74.3C384.3 40.1 407.2 32 432 32c61.9 0 112 50.1 112 112s-50.1 112-112 112z" fill="#00c5f7"/></svg>
